X:1
T: Paddy the Piper
C:
R:Jig
Q:180
K:A
M:6/8
L:1/16
|:E2|E2A2c2 e4f2|e2d2c2 B4d2|c2A2e2 d2B2f2|A6G4E2|
E2A2c2 e4e2|e2d2c2 B4B2|d2c2A2 c2B2G2|B6A4:|
A2|A2c2e2 a4a2|a2g2f2 e4e2|f2d2B2 B2d2f2|A6G4B2|
B2c2^d2 e2f2g2|c2^d2e2 f2g2a2|g2f2e2 f2e2^d2|e2f2e2 e2f2g2|
a2e2c2 A2c2e2|e2d2c2 B4B2|c2d2e2 f2d2B2|A6G4E2|
E2A2c2 e4e2|e2d2c2 B4B2|d2c2A2 c2B2F2|B6A4||
